X: 12
T: Music In The Glen
Z: Jeremy
S: https://thesession.org/tunes/303#setting46436
R: reel
M: 4/4
L: 1/8
K: Gmaj
|:G2BG EGDC|B,DGB AGAB|c2ec B2dB|cABG AGEF|
G2BG EGDC|B,DGB AGAB|cdef g2fe|1 dcBA G2DE:|2 dcBA G2GA||
|:BGdG eGdG|BGdB cAFA|BGdG edef|gedB AGEG|
BGBd edef|g2fg afdf|gefd egdB|1 cABG AGEG:|2 cABG AGEF||

